azure-patterns/svg-blueprints-alt.svg

<svg xmlns="http://www.w3.org/2000/svg" viewBox="0 0 123 118">
                                
                            
  <path opacity="0.7" d="M108.65 115.316C107.42 115.316 108.674 115.568 107.625 115.316V102.573H15.3755C14.8527 102.573 2.56299 102.454 2.56299 92.2895V12.5945C2.56299 5.7047 8.5413 2.56832 14.0942 2.56832C19.6472 2.56832 25.6255 5.70727 25.6255 12.5945V15.1653H97.6317C111.487 15.1653 120.438 19.3608 120.438 33.418V107.714C120.438 113.483 115.259 115.316 108.65 115.316Z" fill="#303030"></path>
  <path d="M97.6312 12.5969H28.1875C28.1875 4.88453 21.7812 0 14.0938 0C6.40625 0 0 4.88453 0 12.5969C0 12.5969 0 79.4379 0 89.7211C0 102.575 7.6875 105.146 15.375 105.146H105.062V118C105.062 118 123 118 123 105.146V33.4205C123 17.9956 115.312 12.5969 97.6312 12.5969ZM117.875 105.66C117.875 105.66 112.75 100.004 102.756 100.004H15.375C10.25 100.004 5.125 98.719 5.125 91.0065C5.125 86.6362 8.45625 82.0087 15.375 82.0087C23.0625 82.0087 27.9312 89.7211 27.9312 89.7211H28.1875V17.7386H100.194C110.444 17.7386 117.875 20.5664 117.875 30.8497V105.66Z" fill="#1A1A1F"></path>
  <path d="M89.6885 76.741L93.5322 87.0242L97.376 76.741H89.6885Z" fill="#1A1A1F"></path>
  <path d="M97.3765 40.7524H89.689V71.602H97.3765V40.7524Z" fill="#1A1A1F"></path>
  <path d="M93.5317 28.1555C95.6535 28.1555 97.3755 29.8188 97.3755 31.8729L97.3063 35.6109L89.688 35.544V31.8704C89.688 29.8189 91.41 28.1555 93.5317 28.1555Z" fill="#1A1A1F"></path>
  <path d="M58.938 25.5846C60.3525 25.5846 61.5005 27.2479 61.5005 29.302L61.4544 33.0399L56.3755 32.9731V29.2994C56.3755 27.2479 57.5235 25.5846 58.938 25.5846Z" fill="#1A1A1F"></path>
  <path d="M58.9376 30.7261C53.418 30.7261 48.9438 35.2148 48.9438 40.7523C48.9438 46.2898 53.418 50.7784 58.9376 50.7784C64.4572 50.7784 68.9313 46.2898 68.9313 40.7523C68.9313 35.2148 64.4572 30.7261 58.9376 30.7261ZM58.9376 48.2076C54.8402 48.2076 51.5063 44.863 51.5063 40.7523C51.5063 36.6416 54.8402 33.297 58.9376 33.297C63.035 33.297 66.3688 36.6416 66.3688 40.7523C66.3688 44.863 63.035 48.2076 58.9376 48.2076Z" fill="#1A1A1F"></path>
  <path d="M58.9375 48.2437V43.3232L54.1533 46.6833L43.8597 78.4687L43.1294 89.0399L48.731 80.0575H48.7336L59.0271 48.272L58.9375 48.2437Z" fill="#1A1A1F"></path>
  <path d="M74.0151 78.4687L63.7215 46.6833L58.9373 43.3232V48.2437L58.8477 48.272L69.1412 80.0575H69.1438L74.7454 89.0399L74.0151 78.4687Z" fill="#1A1A1F"></path>
  <path d="M79.438 66.4605H38.438C37.7307 66.4605 37.1567 65.8847 37.1567 65.1751C37.1567 64.4656 37.7307 63.8897 38.438 63.8897H79.438C80.1452 63.8897 80.7192 64.4656 80.7192 65.1751C80.7192 65.8847 80.1452 66.4605 79.438 66.4605Z" fill="#1A1A1F"></path>
</svg>

<svg xmlns="http://www.w3.org/2000/svg" viewBox="0 0 123 118"><path opacity=".7" d="M108.65 115.316c-1.23 0 .024.252-1.025 0v-12.743h-92.25c-.522 0-12.812-.119-12.812-10.283V12.594c0-6.89 5.978-10.026 11.531-10.026 5.553 0 11.531 3.14 11.531 10.027v2.57h72.007c13.855 0 22.806 4.196 22.806 18.253v74.296c0 5.769-5.179 7.602-11.788 7.602z" fill="#303030"/><path d="M97.631 12.597H28.187C28.188 4.885 21.782 0 14.095 0 6.406 0 0 4.885 0 12.597V89.72c0 12.854 7.688 15.425 15.375 15.425h89.687V118S123 118 123 105.146V33.42c0-15.424-7.688-20.823-25.369-20.823zm20.244 93.063s-5.125-5.656-15.119-5.656H15.375c-5.125 0-10.25-1.285-10.25-8.998 0-4.37 3.331-8.997 10.25-8.997 7.688 0 12.556 7.712 12.556 7.712h.256V17.74h72.007c10.25 0 17.681 2.827 17.681 13.11v74.811z" fill="#1A1A1F"/><path d="M89.689 76.741l3.843 10.283 3.844-10.283h-7.688zM97.376 40.752H89.69v30.85h7.688v-30.85zM93.532 28.155c2.121 0 3.844 1.664 3.844 3.718l-.07 3.738-7.618-.067V31.87c0-2.051 1.722-3.715 3.844-3.715zM58.938 25.585c1.414 0 2.563 1.663 2.563 3.717l-.047 3.738-5.078-.067V29.3c0-2.051 1.148-3.714 2.562-3.714z" fill="#1A1A1F"/><path d="M58.938 30.726c-5.52 0-9.994 4.489-9.994 10.026 0 5.538 4.474 10.026 9.994 10.026s9.993-4.488 9.993-10.026c0-5.537-4.474-10.026-9.993-10.026zm0 17.482c-4.098 0-7.432-3.345-7.432-7.456 0-4.11 3.334-7.455 7.432-7.455 4.097 0 7.43 3.345 7.43 7.455 0 4.111-3.333 7.456-7.43 7.456z" fill="#1A1A1F"/><path d="M58.938 48.244v-4.92l-4.785 3.36L43.86 78.468l-.73 10.57 5.601-8.981h.003l10.293-31.786-.09-.028z" fill="#1A1A1F"/><path d="M74.015 78.469L63.721 46.683l-4.784-3.36v4.92l-.09.029 10.294 31.786h.003l5.601 8.982-.73-10.571z" fill="#1A1A1F"/><path d="M79.438 66.46h-41a1.284 1.284 0 0 1-1.281-1.285c0-.71.574-1.285 1.281-1.285h41c.707 0 1.281.576 1.281 1.285 0 .71-.574 1.285-1.281 1.285z" fill="#1A1A1F"/></svg>
